scalable/apps/com.visualstudio.code.svg

<?xml version="1.0" encoding="UTF-8" standalone="no"?>
<!-- Created with Inkscape (http://www.inkscape.org/) -->

<svg
   width="128"
   height="128"
   viewBox="0 0 128 128"
   version="1.1"
   id="svg5"
   inkscape:version="1.4 (e7c3feb100, 2024-10-09)"
   sodipodi:docname="com.visualstudio.code.svg"
   xml:space="preserve"
   xmlns:inkscape="http://www.inkscape.org/namespaces/inkscape"
   xmlns:sodipodi="http://sodipodi.sourceforge.net/DTD/sodipodi-0.dtd"
   xmlns:xlink="http://www.w3.org/1999/xlink"
   xmlns="http://www.w3.org/2000/svg"
   xmlns:svg="http://www.w3.org/2000/svg"><sodipodi:namedview
     id="namedview7"
     pagecolor="#ffffff"
     bordercolor="#666666"
     borderopacity="1"
     inkscape:pageshadow="2"
     inkscape:pageopacity="0.0"
     inkscape:pagecheckerboard="true"
     inkscape:document-units="px"
     showgrid="false"
     inkscape:showpageshadow="false"
     showborder="true"
     inkscape:snap-page="true"
     inkscape:zoom="4.6142434"
     inkscape:cx="70.867523"
     inkscape:cy="69.675562"
     inkscape:window-width="1920"
     inkscape:window-height="1043"
     inkscape:window-x="0"
     inkscape:window-y="0"
     inkscape:window-maximized="1"
     inkscape:current-layer="layer2"
     inkscape:deskcolor="#d1d1d1" /><defs
     id="defs2"><linearGradient
       id="linearGradient7"
       x1="49.9392"
       y1="0.257812"
       x2="49.9392"
       y2="99.7423"
       gradientUnits="userSpaceOnUse"
       gradientTransform="matrix(0.76242929,0,0,0.76242929,26.69079,21.878509)"><stop
         stop-color="white"
         id="stop6"
         offset="0"
         style="stop-color:#000000;stop-opacity:1;" /><stop
         offset="1"
         stop-color="white"
         stop-opacity="0"
         id="stop7"
         style="stop-color:#000000;stop-opacity:1;" /></linearGradient><linearGradient
       inkscape:collect="always"
       id="linearGradient404"><stop
         style="stop-color:#e6e6e6;stop-opacity:1"
         offset="0"
         id="stop400" /><stop
         style="stop-color:#ffffff;stop-opacity:1"
         offset="1"
         id="stop402" /></linearGradient><linearGradient
       y2="236"
       x2="96"
       y1="236"
       x1="32"
       gradientTransform="translate(604.81684,170.58641)"
       gradientUnits="userSpaceOnUse"
       id="linearGradient1099"
       xlink:href="#linearGradient1036" /><linearGradient
       id="linearGradient1036"><stop
         id="stop1032"
         offset="0"
         style="stop-color:#d5d3cf;stop-opacity:1;" /><stop
         id="stop1034"
         offset="1"
         style="stop-color:#f6f5f4;stop-opacity:1" /></linearGradient><radialGradient
       r="32"
       fy="-76"
       fx="-244"
       cy="-76"
       cx="-244"
       gradientTransform="matrix(0.88333331,0,0,0.88333331,-460.35018,463.11973)"
       gradientUnits="userSpaceOnUse"
       id="radialGradient1103"
       xlink:href="#linearGradient1069" /><linearGradient
       id="linearGradient1069"><stop
         id="stop1065"
         offset="0"
         style="stop-color:#d5d3cf;stop-opacity:1" /><stop
         id="stop1067-1"
         offset="1"
         style="stop-color:#949390;stop-opacity:1" /></linearGradient><linearGradient
       gradientUnits="userSpaceOnUse"
       y2="232"
       x2="64"
       y1="262.5"
       x1="64"
       id="linearGradient1027"
       xlink:href="#linearGradient1025"
       gradientTransform="translate(-470.5864,432.81685)" /><linearGradient
       id="linearGradient1025"><stop
         id="stop1021"
         offset="0"
         style="stop-color:#9a9996;stop-opacity:1" /><stop
         id="stop1023"
         offset="1"
         style="stop-color:#77767b;stop-opacity:1" /></linearGradient><inkscape:path-effect
       effect="spiro"
       id="path-effect35304-9"
       is_visible="true" /><clipPath
       clipPathUnits="userSpaceOnUse"
       id="clipPath1609-7"><path
         sodipodi:nodetypes="cccccc"
         inkscape:connector-curvature="0"
         id="path1611-5"
         d="m 252,116 28,-28 v -8 h -36 v 36 z"
         style="fill:#e74747;stroke:none;stroke-width:0.25px;stroke-linecap:butt;stroke-linejoin:miter;stroke-opacity:1" /></clipPath><linearGradient
       inkscape:collect="always"
       id="linearGradient8241"><stop
         style="stop-color:#999999;stop-opacity:1"
         offset="0"
         id="stop8237" /><stop
         style="stop-color:#b3b3b3;stop-opacity:1"
         offset="0.05"
         id="stop9349" /><stop
         style="stop-color:#999999;stop-opacity:1"
         offset="0.1"
         id="stop21746" /><stop
         style="stop-color:#999999;stop-opacity:1"
         offset="0.89999998"
         id="stop21940" /><stop
         style="stop-color:#b3b3b3;stop-opacity:1"
         offset="0.94999999"
         id="stop9351" /><stop
         style="stop-color:#999999;stop-opacity:1"
         offset="1"
         id="stop8239" /></linearGradient><radialGradient
       r="32"
       fy="-76"
       fx="-244"
       cy="-76"
       cx="-244"
       gradientTransform="matrix(0.88333331,0,0,0.88333331,-460.35018,463.11973)"
       gradientUnits="userSpaceOnUse"
       id="radialGradient1103-5"
       xlink:href="#linearGradient1069" /><inkscape:path-effect
       effect="spiro"
       id="path-effect35304-9-2"
       is_visible="true" /><clipPath
       clipPathUnits="userSpaceOnUse"
       id="clipPath1609-7-7"><path
         sodipodi:nodetypes="cccccc"
         inkscape:connector-curvature="0"
         id="path1611-5-0"
         d="m 252,116 28,-28 v -8 h -36 v 36 z"
         style="fill:#e74747;stroke:none;stroke-width:0.25px;stroke-linecap:butt;stroke-linejoin:miter;stroke-opacity:1" /></clipPath><clipPath
       clipPathUnits="userSpaceOnUse"
       id="clipPath744"><rect
         style="fill:#1e88e5;fill-opacity:1;stroke-width:0.264583"
         id="rect746"
         width="541.86664"
         height="541.86664"
         x="0"
         y="1.5987212e-14"
         rx="79.375"
         ry="79.375" /></clipPath><clipPath
       clipPathUnits="userSpaceOnUse"
       id="clipPath62"><rect
         style="fill:#1e88e5;fill-opacity:1;stroke-width:0.264583"
         id="rect64"
         width="541.86664"
         height="541.86664"
         x="2.2507105e-05"
         y="-0.42205024"
         rx="79.375"
         ry="79.375" /></clipPath><linearGradient
       inkscape:collect="always"
       xlink:href="#linearGradient8241"
       id="linearGradient8243"
       x1="11.5"
       y1="120.5"
       x2="116.5"
       y2="120.5"
       gradientUnits="userSpaceOnUse" /><radialGradient
       r="32"
       fy="-76"
       fx="-244"
       cy="-76"
       cx="-244"
       gradientTransform="matrix(0.88333331,0,0,0.88333331,-460.35018,463.11973)"
       gradientUnits="userSpaceOnUse"
       id="radialGradient1103-6"
       xlink:href="#linearGradient1069" /><inkscape:path-effect
       effect="spiro"
       id="path-effect35304-9-20"
       is_visible="true" /><clipPath
       clipPathUnits="userSpaceOnUse"
       id="clipPath1609-7-2"><path
         sodipodi:nodetypes="cccccc"
         inkscape:connector-curvature="0"
         id="path1611-5-3"
         d="m 252,116 28,-28 v -8 h -36 v 36 z"
         style="fill:#e74747;stroke:none;stroke-width:0.25px;stroke-linecap:butt;stroke-linejoin:miter;stroke-opacity:1" /></clipPath><radialGradient
       r="32"
       fy="-76"
       fx="-244"
       cy="-76"
       cx="-244"
       gradientTransform="matrix(0.88333331,0,0,0.88333331,-460.35018,463.11973)"
       gradientUnits="userSpaceOnUse"
       id="radialGradient1103-56"
       xlink:href="#linearGradient1069" /><inkscape:path-effect
       effect="spiro"
       id="path-effect35304-9-7"
       is_visible="true" /><clipPath
       clipPathUnits="userSpaceOnUse"
       id="clipPath1609-7-0"><path
         sodipodi:nodetypes="cccccc"
         inkscape:connector-curvature="0"
         id="path1611-5-9"
         d="m 252,116 28,-28 v -8 h -36 v 36 z"
         style="fill:#e74747;stroke:none;stroke-width:0.25px;stroke-linecap:butt;stroke-linejoin:miter;stroke-opacity:1" /></clipPath><clipPath
       clipPathUnits="userSpaceOnUse"
       id="clipPath37"><rect
         style="fill:#1a1a1a;fill-opacity:1;stroke-width:0.264583"
         id="rect39"
         width="541.86664"
         height="541.86664"
         x="-2.6626146e-06"
         y="3.2408705"
         rx="79.375"
         ry="79.375" /></clipPath><clipPath
       clipPathUnits="userSpaceOnUse"
       id="clipPath22042"><rect
         style="fill:#333333;fill-opacity:1;stroke-width:0.0133797"
         id="rect22044"
         width="27.31955"
         height="27.483929"
         x="166.96844"
         y="105.40438"
         rx="4.0018873"
         ry="4.0259666" /></clipPath><clipPath
       clipPathUnits="userSpaceOnUse"
       id="clipPath1039"><rect
         style="fill:#b3b3b3;fill-opacity:1;stroke-width:0.264583"
         id="rect1041"
         width="541.8667"
         height="541.86682"
         x="2.5931527e-05"
         y="-0.00010962487"
         rx="79.375008"
         ry="79.375031" /></clipPath><clipPath
       clipPathUnits="userSpaceOnUse"
       id="clipPath154"><rect
         style="fill:#b3b3b3;fill-opacity:1;stroke-width:0.264583"
         id="rect156"
         width="541.8667"
         height="541.86682"
         x="-2.9218751e-05"
         y="-0.00016368683"
         rx="79.375008"
         ry="79.375031" /></clipPath><linearGradient
       inkscape:collect="always"
       xlink:href="#linearGradient404"
       id="linearGradient406"
       x1="64"
       y1="112.5"
       x2="64"
       y2="7.5"
       gradientUnits="userSpaceOnUse" /><linearGradient
       id="paint0_linear"
       x1="49.9392"
       y1="0.257812"
       x2="49.9392"
       y2="99.7423"
       gradientUnits="userSpaceOnUse"
       gradientTransform="matrix(0.76242929,0,0,0.76242929,26.69079,21.878509)"><stop
         stop-color="white"
         id="stop585" /><stop
         offset="1"
         stop-color="white"
         stop-opacity="0"
         id="stop587" /></linearGradient><filter
       style="color-interpolation-filters:sRGB;"
       inkscape:label="Drop Shadow"
       id="filter47"
       x="-0.031459186"
       y="-0.031641392"
       width="1.0629184"
       height="1.0896506"><feFlood
         result="flood"
         in="SourceGraphic"
         flood-opacity="0.254902"
         flood-color="rgb(0,0,0)"
         id="feFlood46" /><feGaussianBlur
         result="blur"
         in="SourceGraphic"
         stdDeviation="1.000000"
         id="feGaussianBlur46" /><feOffset
         result="offset"
         in="blur"
         dx="0.000000"
         dy="2.000000"
         id="feOffset46" /><feComposite
         result="comp1"
         operator="in"
         in="flood"
         in2="offset"
         id="feComposite46" /><feComposite
         result="comp2"
         operator="over"
         in="SourceGraphic"
         in2="comp1"
         id="feComposite47" /></filter></defs><g
     inkscape:groupmode="layer"
     id="layer2"
     inkscape:label="Layer 1"><rect
       style="fill:url(#linearGradient8243);fill-opacity:1"
       id="rect440"
       width="105"
       height="105"
       x="11.5"
       y="15.5"
       rx="13"
       ry="13" /><rect
       style="fill:url(#linearGradient406);fill-opacity:1"
       id="rect358"
       width="105"
       height="105"
       x="11.5"
       y="7.5"
       rx="13"
       ry="13" /><rect
       style="fill:#e6e6e6;fill-opacity:1;stroke-width:0.959575"
       id="rect338"
       width="100.75533"
       height="100.75533"
       x="13.622333"
       y="9.6223326"
       rx="12"
       ry="12" /><g
       id="g1148"
       transform="translate(-4)"><path
         d="m 100.23579,30.109935 -15.70948,-7.5638 C 82.70792,21.670626 80.53484,22.039934 79.1078,23.466988 L 27.68087,70.35629 c -1.38326,1.261134 -1.38167,3.438937 0.003,4.698089 l 4.20071,3.818856 c 1.13236,1.029432 2.83774,1.105218 4.05694,0.180315 L 97.87144,32.072199 c 2.0777,-1.57617 5.06185,-0.09431 5.06185,2.513577 v -0.182373 c 0,-1.830593 -1.04865,-3.499322 -2.69793,-4.293468 z"
         fill="#0065a9"
         id="path539"
         style="stroke-width:0.762429" /><g
         filter="url(#filter0_d)"
         id="g543"
         transform="matrix(0.76242929,0,0,0.76242929,26.69079,21.878596)"
         style="fill:none"><path
           d="m 96.4614,89.2038 -20.6045,9.9207 c -2.385,1.1485 -5.2352,0.6639 -7.1069,-1.2078 L 1.29858,36.4169 c -1.814273,-1.6542 -1.812187,-4.5106 0.0045,-6.1621 L 6.81272,25.246 C 8.29793,23.8958 10.5347,23.7964 12.1338,25.0095 L 93.3609,86.6301 C 96.086,88.6974 100,86.7538 100,83.3334 v 0.2392 c 0,2.4009 -1.3754,4.5896 -3.5386,5.6312 z"
           fill="#007acc"
           id="path541" /></g><g
         filter="url(#filter1_d)"
         id="g547"
         transform="matrix(0.76242929,0,0,0.76242929,26.69079,21.878596)"
         style="fill:#1f9cf0;fill-opacity:1"><path
           d="M 75.8578,99.1263 C 73.4721,100.274 70.6219,99.7885 68.75,97.9166 71.0564,100.223 75,98.5895 75,95.3278 V 4.67213 C 75,1.41039 71.0564,-0.223106 68.75,2.08329 70.6219,0.211402 73.4721,-0.273666 75.8578,0.873633 L 96.4587,10.7807 C 98.6234,11.8217 100,14.0112 100,16.4132 v 67.1739 c 0,2.402 -1.3766,4.5915 -3.5414,5.6325 z"
           fill="#1f9cf0"
           id="path545"
           style="fill:#1f9cf0;fill-opacity:1" /></g><path
         fill-rule="evenodd"
         clip-rule="evenodd"
         d="m 80.709744,97.600775 c 1.200826,0.46775 2.570149,0.437787 3.782107,-0.145395 l 15.697119,-7.553158 c 1.64944,-0.793689 2.69839,-2.463028 2.69839,-4.29446 V 34.39249 c 0,-1.831432 -1.04887,-3.500771 -2.69831,-4.29446 L 84.491851,22.54464 c -1.59058,-0.765392 -3.452204,-0.577919 -4.848288,0.437013 -0.199376,0.144991 -0.389373,0.30687 -0.567629,0.485263 L 49.025622,50.882387 35.936313,40.946561 c -1.218439,-0.92498 -2.922811,-0.849118 -4.054485,0.180238 l -4.198164,3.818856 c -1.384255,1.259228 -1.385841,3.436955 -0.0034,4.698165 L 39.031699,59.999974 27.680233,70.356203 c -1.38241,1.261211 -1.380824,3.438937 0.0034,4.698089 l 4.198164,3.818856 c 1.131674,1.029432 2.836046,1.105218 4.054485,0.180315 l 13.08934,-9.935903 30.050312,27.415509 c 0.475375,0.475603 1.033549,0.833869 1.63381,1.067706 z M 83.83822,42.69199 61.036933,59.999974 83.83822,77.308033 Z"
         fill="url(#paint0_linear)"
         id="path549"
         style="opacity:0.25;mix-blend-mode:overlay;fill:url(#paint0_linear);stroke-width:0.762429" /></g></g></svg>

<svg xmlns="http://www.w3.org/2000/svg" xmlns:xlink="http://www.w3.org/1999/xlink" xml:space="preserve" width="128" height="128" viewBox="0 0 128 128">
    <defs>
        <linearGradient id="b">
            <stop offset="0" style="stop-color:#e6e6e6;stop-opacity:1"/>
            <stop offset="1" style="stop-color:#fff;stop-opacity:1"/>
        </linearGradient>
        <linearGradient id="a">
            <stop offset="0" style="stop-color:#999;stop-opacity:1"/>
            <stop offset=".05" style="stop-color:#b3b3b3;stop-opacity:1"/>
            <stop offset=".1" style="stop-color:#999;stop-opacity:1"/>
            <stop offset=".9" style="stop-color:#999;stop-opacity:1"/>
            <stop offset=".95" style="stop-color:#b3b3b3;stop-opacity:1"/>
            <stop offset="1" style="stop-color:#999;stop-opacity:1"/>
        </linearGradient>
        <linearGradient xlink:href="#a" id="c" x1="11.5" x2="116.5" y1="120.5" y2="120.5" gradientUnits="userSpaceOnUse"/>
        <linearGradient xlink:href="#b" id="d" x1="64" x2="64" y1="112.5" y2="7.5" gradientUnits="userSpaceOnUse"/>
        <linearGradient id="e" x1="49.939" x2="49.939" y1=".258" y2="99.742" gradientTransform="translate(26.69 21.879)scale(.76243)" gradientUnits="userSpaceOnUse">
            <stop stop-color="#fff"/>
            <stop offset="1" stop-color="#fff" stop-opacity="0"/>
        </linearGradient>
    </defs>
    <rect width="105" height="105" x="11.5" y="15.5" rx="13" ry="13" style="fill:url(#c);fill-opacity:1"/>
    <rect width="105" height="105" x="11.5" y="7.5" rx="13" ry="13" style="fill:url(#d);fill-opacity:1"/>
    <rect width="100.755" height="100.755" x="13.622" y="9.622" rx="12" ry="12" style="fill:#e6e6e6;fill-opacity:1;stroke-width:.959575"/>
    <path fill="#0065a9" d="m100.236 30.11-15.71-7.564a4.75 4.75 0 0 0-5.418.921L27.68 70.357a3.177 3.177 0 0 0 .003 4.697l4.2 3.82a3.18 3.18 0 0 0 4.058.18l61.93-46.982c2.077-1.576 5.061-.094 5.061 2.514v-.183a4.76 4.76 0 0 0-2.698-4.293z" style="stroke-width:.762429" transform="translate(-4)"/>
    <g filter="url(#filter0_d)" style="fill:none" transform="translate(22.69 21.879)scale(.76243)">
        <path fill="#007acc" d="m96.461 89.204-20.604 9.92a6.23 6.23 0 0 1-7.107-1.207l-67.451-61.5a4.167 4.167 0 0 1 .004-6.162l5.51-5.009a4.17 4.17 0 0 1 5.32-.236l81.228 61.62c2.725 2.067 6.639.124 6.639-3.297v.24a6.25 6.25 0 0 1-3.539 5.63"/>
    </g>
    <g filter="url(#filter1_d)" style="fill:#1f9cf0;fill-opacity:1" transform="translate(22.69 21.879)scale(.76243)">
        <path d="M75.858 99.126a6.23 6.23 0 0 1-7.108-1.21c2.306 2.307 6.25.674 6.25-2.588V4.672c0-3.262-3.944-4.895-6.25-2.589a6.23 6.23 0 0 1 7.108-1.21l20.6 9.908A6.25 6.25 0 0 1 100 16.413v67.174a6.25 6.25 0 0 1-3.541 5.633z" style="fill:#1f9cf0;fill-opacity:1"/>
    </g>
    <path fill="url(#e)" fill-rule="evenodd" d="M80.71 97.6c1.2.469 2.57.439 3.782-.145l15.697-7.553a4.76 4.76 0 0 0 2.698-4.294V34.392c0-1.83-1.049-3.5-2.698-4.294l-15.697-7.553a4.75 4.75 0 0 0-5.416.922l-30.05 27.415-13.09-9.935a3.17 3.17 0 0 0-4.054.18l-4.198 3.819a3.18 3.18 0 0 0-.004 4.698L39.032 60 27.68 70.356a3.18 3.18 0 0 0 .004 4.698l4.198 3.82a3.17 3.17 0 0 0 4.054.18l13.09-9.936 30.05 27.415a4.7 4.7 0 0 0 1.634 1.068m3.128-54.908L61.037 60l22.801 17.308Z" clip-rule="evenodd" style="opacity:.25;mix-blend-mode:overlay;fill:url(#e);stroke-width:.762429" transform="translate(-4)"/>
</svg>
